src/icons/azure-app-service.svg

<?xml version="1.0" encoding="UTF-8"?>
<svg xmlns="http://www.w3.org/2000/svg" xmlns:xlink="http://www.w3.org/1999/xlink" width="32.109001" height="32" viewBox="0 0 32.109001 32" version="1.1">
<defs>
<radialGradient id="radial0" gradientUnits="userSpaceOnUse" cx="13428.80957" cy="3518.860107" fx="13428.80957" fy="3518.860107" r="56.669998" gradientTransform="matrix(0.27242,0,0,0.27242,-3642.096924,-942.546997)">
<stop offset="0.18" style="stop-color:rgb(36.862746%,62.7451%,93.725491%);stop-opacity:1;"/>
<stop offset="1" style="stop-color:rgb(0%,47.058824%,83.137256%);stop-opacity:1;"/>
</radialGradient>
<filter id="alpha" filterUnits="objectBoundingBox" x="0%" y="0%" width="100%" height="100%">
  <feColorMatrix type="matrix" in="SourceGraphic" values="0 0 0 0 1 0 0 0 0 1 0 0 0 0 1 0 0 0 1 0"/>
</filter>
<image id="image14" width="33" height="32" xlink:href="data:image/png;base64,iVBORw0KGgoAAAANSUhEUgAAACEAAAAgCAYAAACcuBHKAAAABmJLR0QA/wD/AP+gvaeTAAAAW0lEQVRYhe3OoRWAMBTF0MDpFKyAYQK2RzNEp+DUoKIqkB/x7gIJ/MACnMBW0O7ABdCAA9gLJm4n1oL4JBPKhDKhTCgTyoQyoUwoE8qEMqFMqAEDeArao6AZ3152Twca5TYzZAAAAABJRU5ErkJggg=="/>
<mask id="mask0">
  <g filter="url(#alpha)">
<use xlink:href="#image14"/>
  </g>
</mask>
<clipPath id="clip2">
  <rect x="0" y="0" width="33" height="32"/>
</clipPath>
<g id="surface13" clip-path="url(#clip2)">
<path style=" stroke:none;fill-rule:nonzero;fill:rgb(100%,100%,100%);fill-opacity:1;" d="M 11.96875 12.839844 C 16.335938 8.6875 22.125 6.363281 28.148438 6.339844 C 27.359375 5.359375 26.449219 4.480469 25.445312 3.722656 C 22.511719 3.902344 19.632812 4.578125 16.925781 5.722656 C 14.140625 6.917969 11.621094 8.660156 9.515625 10.84375 C 10.527344 11.226562 11.386719 11.925781 11.96875 12.839844 M 4.324219 19.050781 C 3.699219 20.59375 3.195312 22.1875 2.816406 23.808594 C 3.148438 24.390625 3.527344 24.949219 3.941406 25.480469 C 4.269531 25.898438 4.578125 26.277344 4.941406 26.660156 C 5.378906 24.5 6.035156 22.386719 6.902344 20.359375 C 5.933594 20.1875 5.035156 19.730469 4.324219 19.050781 M 4.324219 19.050781 "/>
</g>
<clipPath id="clip1">
  <rect x="0" y="0" width="33" height="32"/>
</clipPath>
<g id="surface16" clip-path="url(#clip1)">
<use xlink:href="#surface13" mask="url(#mask0)"/>
</g>
<image id="image29" width="33" height="32" xlink:href="data:image/png;base64,iVBORw0KGgoAAAANSUhEUgAAACEAAAAgCAYAAACcuBHKAAAABmJLR0QA/wD/AP+gvaeTAAAAWklEQVRYhe3UoQ2AQAxA0Q9B4AizsAXTMgTzIDAEd4YmRSFIqv5LLmlVvzqQ3ro0T8Cc9gM4KyKGNC/AmvYN2Csi+oojX4wIRgQjQv6sxueFC7hrcyRJkvRPA3aoBgaucF53AAAAAElFTkSuQmCC"/>
<mask id="mask1">
  <g filter="url(#alpha)">
<use xlink:href="#image29"/>
  </g>
</mask>
<clipPath id="clip4">
  <rect x="0" y="0" width="33" height="32"/>
</clipPath>
<g id="surface28" clip-path="url(#clip4)">
<path style=" stroke:none;fill-rule:nonzero;fill:rgb(94.901961%,94.901961%,94.901961%);fill-opacity:1;" d="M 6.101562 10.804688 C 5.460938 9.085938 5.039062 7.289062 4.847656 5.464844 C 4.085938 6.265625 3.417969 7.148438 2.851562 8.101562 C 3.054688 9.570312 3.402344 11.019531 3.886719 12.421875 C 4.457031 11.683594 5.226562 11.121094 6.101562 10.804688 M 6.101562 10.804688 "/>
</g>
<clipPath id="clip3">
  <rect x="0" y="0" width="33" height="32"/>
</clipPath>
<g id="surface31" clip-path="url(#clip3)">
<use xlink:href="#surface28" mask="url(#mask1)"/>
</g>
<linearGradient id="linear0" gradientUnits="userSpaceOnUse" x1="4.4" y1="11.48" x2="4.37" y2="7.53" gradientTransform="matrix(1.81612,0,0,1.81612,-0.182,-0.29)">
<stop offset="0" style="stop-color:rgb(80.000001%,80.000001%,80.000001%);stop-opacity:1;"/>
<stop offset="1" style="stop-color:rgb(98.823529%,98.823529%,98.823529%);stop-opacity:1;"/>
</linearGradient>
<image id="image44" width="33" height="32" xlink:href="data:image/png;base64,iVBORw0KGgoAAAANSUhEUgAAACEAAAAgCAYAAACcuBHKAAAABmJLR0QA/wD/AP+gvaeTAAAAV0lEQVRYhe3UMQqAMAxA0V/Rxct4oR7HC4u7OGUSMqhBh/+mQkPzp4IkSZLe0ZK7BeiFuzdgBRiToUYe+dRwOXzJiGBEMCL8IiL7jCZgLtx9AHvh+7rnBIzBBBvvy+cQAAAAAElFTkSuQmCC"/>
<mask id="mask2">
  <g filter="url(#alpha)">
<use xlink:href="#image44"/>
  </g>
</mask>
<clipPath id="clip6">
  <rect x="0" y="0" width="33" height="32"/>
</clipPath>
<g id="surface43" clip-path="url(#clip6)">
<path style=" stroke:none;fill-rule:nonzero;fill:rgb(94.901961%,94.901961%,94.901961%);fill-opacity:1;" d="M 15 24.535156 C 15 23.664062 15.355469 22.835938 15.980469 22.230469 C 14.308594 21.3125 12.761719 20.175781 11.386719 18.851562 C 10.667969 19.628906 9.71875 20.15625 8.679688 20.359375 C 9.5 21.199219 10.378906 21.972656 11.3125 22.683594 C 12.476562 23.5625 13.726562 24.324219 15.039062 24.953125 C 15.015625 24.816406 15.003906 24.675781 15 24.535156 M 26.441406 24.917969 C 24.753906 24.917969 23.074219 24.722656 21.429688 24.335938 C 21.4375 24.402344 21.4375 24.46875 21.429688 24.535156 C 21.433594 25.378906 21.097656 26.191406 20.503906 26.789062 C 22.546875 27.191406 24.632812 27.339844 26.714844 27.222656 C 27.519531 26.492188 28.246094 25.675781 28.875 24.789062 C 28.066406 24.878906 27.253906 24.921875 26.441406 24.917969 M 26.441406 24.917969 "/>
</g>
<clipPath id="clip5">
  <rect x="0" y="0" width="33" height="32"/>
</clipPath>
<g id="surface46" clip-path="url(#clip5)">
<use xlink:href="#surface43" mask="url(#mask2)"/>
</g>
<linearGradient id="linear1" gradientUnits="userSpaceOnUse" x1="10.13" y1="15.45" x2="10.13" y2="11.9" gradientTransform="matrix(1.81612,0,0,1.81612,-0.182,-0.29)">
<stop offset="0" style="stop-color:rgb(80.000001%,80.000001%,80.000001%);stop-opacity:1;"/>
<stop offset="1" style="stop-color:rgb(98.823529%,98.823529%,98.823529%);stop-opacity:1;"/>
</linearGradient>
<image id="image59" width="33" height="32" xlink:href="data:image/png;base64,iVBORw0KGgoAAAANSUhEUgAAACEAAAAgCAYAAACcuBHKAAAABmJLR0QA/wD/AP+gvaeTAAAAU0lEQVRYhe3OoRGAMBQE0YXB0wW1IlIJhdALXaBOEjLzEYh9+vKzE+8asA3snpzA3hvMheOfMSKMCCPCiDAijAgj4hcRy8DmANbCH1fhrSRJ6roBr8gDyFAzBJwAAAAASUVORK5CYII="/>
<mask id="mask3">
  <g filter="url(#alpha)">
<use xlink:href="#image59"/>
  </g>
</mask>
<clipPath id="clip8">
  <rect x="0" y="0" width="33" height="32"/>
</clipPath>
<g id="surface58" clip-path="url(#clip8)">
<path style=" stroke:none;fill-rule:nonzero;fill:rgb(94.901961%,94.901961%,94.901961%);fill-opacity:1;" d="M 22.191406 15.925781 C 22.351562 15.214844 22.742188 14.578125 23.300781 14.109375 C 20.308594 11.9375 17.589844 9.414062 15.199219 6.59375 C 13.808594 4.957031 12.589844 3.179688 11.570312 1.289062 C 10.890625 1.492188 10.230469 1.746094 9.589844 2.050781 C 10.683594 4.109375 11.992188 6.046875 13.492188 7.828125 C 16.046875 10.878906 18.96875 13.597656 22.191406 15.925781 M 22.191406 15.925781 "/>
</g>
<clipPath id="clip7">
  <rect x="0" y="0" width="33" height="32"/>
</clipPath>
<g id="surface61" clip-path="url(#clip7)">
<use xlink:href="#surface58" mask="url(#mask3)"/>
</g>
<linearGradient id="linear2" gradientUnits="userSpaceOnUse" x1="14.18" y1="11.15" x2="14.18" y2="7.38" gradientTransform="matrix(1.81612,0,0,1.81612,-0.182,-0.29)">
<stop offset="0" style="stop-color:rgb(80.000001%,80.000001%,80.000001%);stop-opacity:1;"/>
<stop offset="1" style="stop-color:rgb(98.823529%,98.823529%,98.823529%);stop-opacity:1;"/>
</linearGradient>
<image id="image74" width="33" height="32" xlink:href="data:image/png;base64,iVBORw0KGgoAAAANSUhEUgAAACEAAAAgCAYAAACcuBHKAAAABmJLR0QA/wD/AP+gvaeTAAAAUUlEQVRYhe3SoRGAUAwE0YVB4ED+FqiFZimIFhA4JDYCfQPMPncqKwKSJEk/0IXvrcBS9g5sQzhiBlrZB0Afjnj0ioj0T0zAWPYFnOEGSfqwG7LaBSDnVEplAAAAAElFTkSuQmCC"/>
<mask id="mask4">
  <g filter="url(#alpha)">
<use xlink:href="#image74"/>
  </g>
</mask>
<clipPath id="clip10">
  <rect x="0" y="0" width="33" height="32"/>
</clipPath>
<g id="surface73" clip-path="url(#clip10)">
<path style=" stroke:none;fill-rule:nonzero;fill:rgb(94.901961%,94.901961%,94.901961%);fill-opacity:1;" d="M 31.328125 18.851562 L 30.691406 18.542969 L 30.148438 18.253906 L 30.039062 18.253906 L 29.566406 17.871094 L 29.4375 17.871094 L 28.875 17.507812 C 28.679688 18.175781 28.273438 18.761719 27.714844 19.179688 C 27.933594 19.324219 28.167969 19.449219 28.402344 19.578125 L 28.550781 19.667969 L 29.183594 20.011719 L 30.746094 20.832031 C 30.96875 20.171875 31.144531 19.496094 31.273438 18.816406 Z M 31.328125 18.851562 "/>
</g>
<clipPath id="clip9">
  <rect x="0" y="0" width="33" height="32"/>
</clipPath>
<g id="surface76" clip-path="url(#clip9)">
<use xlink:href="#surface73" mask="url(#mask4)"/>
</g>
<linearGradient id="linear3" gradientUnits="userSpaceOnUse" x1="4.4" y1="11.48" x2="4.37" y2="7.53" gradientTransform="matrix(1.81612,0,0,1.81612,-0.182,-0.29)">
<stop offset="0" style="stop-color:rgb(80.000001%,80.000001%,80.000001%);stop-opacity:1;"/>
<stop offset="1" style="stop-color:rgb(98.823529%,98.823529%,98.823529%);stop-opacity:1;"/>
</linearGradient>
<linearGradient id="linear4" gradientUnits="userSpaceOnUse" x1="10.13" y1="15.45" x2="10.13" y2="11.9" gradientTransform="matrix(1.81612,0,0,1.81612,-0.182,-0.29)">
<stop offset="0" style="stop-color:rgb(80.000001%,80.000001%,80.000001%);stop-opacity:1;"/>
<stop offset="1" style="stop-color:rgb(98.823529%,98.823529%,98.823529%);stop-opacity:1;"/>
</linearGradient>
</defs>
<g id="surface1">
<path style=" stroke:none;fill-rule:nonzero;fill:url(#radial0);" d="M 25.625 28.257812 C 18.886719 33.484375 9.183594 32.257812 3.960938 25.515625 C -1.265625 18.777344 -0.0390625 9.074219 6.703125 3.851562 L 6.863281 3.742188 C 13.640625 -1.316406 23.222656 0.015625 28.359375 6.730469 C 33.496094 13.445312 32.277344 23.042969 25.625 28.257812 "/>
<use xlink:href="#surface16"/>
<use xlink:href="#surface31"/>
<path style=" stroke:none;fill-rule:nonzero;fill:url(#linear0);" d="M 12.730469 15.472656 C 12.730469 18.210938 10.511719 20.429688 7.773438 20.429688 C 5.035156 20.429688 2.816406 18.210938 2.816406 15.472656 C 2.816406 12.734375 5.035156 10.515625 7.773438 10.515625 C 10.511719 10.515625 12.730469 12.734375 12.730469 15.472656 M 12.730469 15.472656 "/>
<use xlink:href="#surface46"/>
<path style=" stroke:none;fill-rule:nonzero;fill:url(#linear1);" d="M 21.449219 24.535156 C 21.472656 25.703125 20.859375 26.792969 19.851562 27.382812 C 18.84375 27.972656 17.59375 27.976562 16.585938 27.386719 C 15.578125 26.796875 14.964844 25.707031 14.984375 24.539062 C 15.027344 22.785156 16.460938 21.386719 18.214844 21.382812 C 19.96875 21.382812 21.40625 22.78125 21.449219 24.535156 M 21.449219 24.535156 "/>
<use xlink:href="#surface61"/>
<path style=" stroke:none;fill-rule:nonzero;fill:url(#linear2);" d="M 29.003906 16.542969 C 29.003906 18.4375 27.464844 19.976562 25.570312 19.976562 C 23.675781 19.976562 22.136719 18.4375 22.136719 16.542969 C 22.136719 14.648438 23.675781 13.113281 25.570312 13.113281 C 27.464844 13.113281 29.003906 14.648438 29.003906 16.542969 M 29.003906 16.542969 "/>
<use xlink:href="#surface76"/>
<path style=" stroke:none;fill-rule:nonzero;fill:url(#linear3);" d="M 12.730469 15.472656 C 12.730469 18.210938 10.511719 20.429688 7.773438 20.429688 C 5.035156 20.429688 2.816406 18.210938 2.816406 15.472656 C 2.816406 12.734375 5.035156 10.515625 7.773438 10.515625 C 10.511719 10.515625 12.730469 12.734375 12.730469 15.472656 M 12.730469 15.472656 "/>
<path style=" stroke:none;fill-rule:nonzero;fill:url(#linear4);" d="M 21.449219 24.535156 C 21.472656 25.703125 20.859375 26.792969 19.851562 27.382812 C 18.84375 27.972656 17.59375 27.976562 16.585938 27.386719 C 15.578125 26.796875 14.964844 25.707031 14.984375 24.539062 C 15.027344 22.785156 16.460938 21.386719 18.214844 21.382812 C 19.96875 21.382812 21.40625 22.78125 21.449219 24.535156 M 21.449219 24.535156 "/>
</g>
</svg>

<svg xmlns:xlink="http://www.w3.org/1999/xlink" role="img" viewBox="0 0 32.109 32" xmlns="http://www.w3.org/2000/svg"><defs><linearGradient gradientTransform="translate(-.182 -.29)scale(1.81612)" gradientUnits="userSpaceOnUse" id="o" x1="4.4" x2="4.37" y1="11.48" y2="7.53"><stop offset="0" style="stop-color:rgb(80.000001%,80.000001%,80.000001%);stop-opacity:1"/><stop offset="1" style="stop-color:rgb(98.823529%,98.823529%,98.823529%);stop-opacity:1"/></linearGradient><linearGradient gradientTransform="translate(-.182 -.29)scale(1.81612)" gradientUnits="userSpaceOnUse" id="s" x1="10.13" x2="10.13" y1="15.45" y2="11.9"><stop offset="0" style="stop-color:rgb(80.000001%,80.000001%,80.000001%);stop-opacity:1"/><stop offset="1" style="stop-color:rgb(98.823529%,98.823529%,98.823529%);stop-opacity:1"/></linearGradient><linearGradient gradientTransform="translate(-.182 -.29)scale(1.81612)" gradientUnits="userSpaceOnUse" id="v" x1="14.18" x2="14.18" y1="11.15" y2="7.38"><stop offset="0" style="stop-color:rgb(80.000001%,80.000001%,80.000001%);stop-opacity:1"/><stop offset="1" style="stop-color:rgb(98.823529%,98.823529%,98.823529%);stop-opacity:1"/></linearGradient><linearGradient gradientTransform="translate(-.182 -.29)scale(1.81612)" gradientUnits="userSpaceOnUse" id="y" x1="4.4" x2="4.37" y1="11.48" y2="7.53"><stop offset="0" style="stop-color:rgb(80.000001%,80.000001%,80.000001%);stop-opacity:1"/><stop offset="1" style="stop-color:rgb(98.823529%,98.823529%,98.823529%);stop-opacity:1"/></linearGradient><linearGradient gradientTransform="translate(-.182 -.29)scale(1.81612)" gradientUnits="userSpaceOnUse" id="z" x1="10.13" x2="10.13" y1="15.45" y2="11.9"><stop offset="0" style="stop-color:rgb(80.000001%,80.000001%,80.000001%);stop-opacity:1"/><stop offset="1" style="stop-color:rgb(98.823529%,98.823529%,98.823529%);stop-opacity:1"/></linearGradient><clipPath id="d"><use xlink:href="#a"/></clipPath><clipPath id="e"><use xlink:href="#a"/></clipPath><clipPath id="f"><use xlink:href="#a"/></clipPath><clipPath id="g"><use xlink:href="#a"/></clipPath><clipPath id="h"><use xlink:href="#a"/></clipPath><mask id="k"><g filter="url(#b)"><use xlink:href="#c" style="fill:rgb(0%,0%,0%);fill-opacity:0.6;stroke:none"/></g></mask><mask id="m"><g filter="url(#b)"><use xlink:href="#c" style="fill:rgb(0%,0%,0%);fill-opacity:0.55;stroke:none"/></g></mask><mask id="q"><g filter="url(#b)"><use xlink:href="#c" style="fill:rgb(0%,0%,0%);fill-opacity:0.55;stroke:none"/></g></mask><mask id="u"><g filter="url(#b)"><use xlink:href="#c" style="fill:rgb(0%,0%,0%);fill-opacity:0.7;stroke:none"/></g></mask><mask id="x"><g filter="url(#b)"><use xlink:href="#c" style="fill:rgb(0%,0%,0%);fill-opacity:0.55;stroke:none"/></g></mask><g clip-path="url(#d)" id="j"><path d="M11.969 12.84a23.597 23.597 0 0 1 16.18-6.5c-.79-.98-1.7-1.86-2.704-2.617a25.95 25.95 0 0 0-8.52 2 22.773 22.773 0 0 0-7.41 5.12 5.008 5.008 0 0 1 2.454 1.997m-7.645 6.21a32.355 32.355 0 0 0-1.508 4.759c.332.582.711 1.14 1.125 1.671.329.418.637.797 1 1.18a32.358 32.358 0 0 1 1.961-6.3 5 5 0 0 1-2.578-1.31m0 0" style="stroke:none;fill-rule:nonzero;fill:rgb(100%,100%,100%);fill-opacity:1"/></g><g clip-path="url(#e)" id="l"><path d="M6.102 10.805a21.779 21.779 0 0 1-1.254-5.34c-.762.8-1.43 1.683-1.996 2.637a22.82 22.82 0 0 0 1.035 4.32 4.894 4.894 0 0 1 2.215-1.617m0 0" style="stroke:none;fill-rule:nonzero;fill:rgb(94.901961%,94.901961%,94.901961%);fill-opacity:1"/></g><g clip-path="url(#f)" id="p"><path d="M15 24.535a3.215 3.215 0 0 1 .98-2.305 21.638 21.638 0 0 1-4.593-3.378 4.99 4.99 0 0 1-2.707 1.507c.82.84 1.699 1.614 2.633 2.325a21.98 21.98 0 0 0 3.726 2.27 2.969 2.969 0 0 1-.039-.419m11.441.383c-1.687 0-3.367-.195-5.011-.582a.85.85 0 0 1 0 .2 3.183 3.183 0 0 1-.926 2.253c2.043.402 4.129.55 6.21.434a14.868 14.868 0 0 0 2.161-2.434c-.809.09-1.621.133-2.434.129m0 0" style="stroke:none;fill-rule:nonzero;fill:rgb(94.901961%,94.901961%,94.901961%);fill-opacity:1"/></g><g clip-path="url(#g)" id="t"><path d="M22.191 15.926a3.34 3.34 0 0 1 1.11-1.817 46.188 46.188 0 0 1-8.102-7.515 30.708 30.708 0 0 1-3.629-5.305c-.68.203-1.34.457-1.98.762a33.03 33.03 0 0 0 3.902 5.777 48.03 48.03 0 0 0 8.7 8.098m0 0" style="stroke:none;fill-rule:nonzero;fill:rgb(94.901961%,94.901961%,94.901961%);fill-opacity:1"/></g><g clip-path="url(#h)" id="w"><path d="m31.328 18.852-.637-.309-.543-.29h-.109l-.473-.382h-.128l-.563-.363a3.213 3.213 0 0 1-1.16 1.672c.219.144.453.27.687.398l.149.09.633.344 1.562.82c.223-.66.399-1.336.527-2.016Zm0 0" style="stroke:none;fill-rule:nonzero;fill:rgb(94.901961%,94.901961%,94.901961%);fill-opacity:1"/></g><path d="M0 0h33v32H0z" id="a"/><path d="M0 0h32.109v32H0z" id="c"/><path d="M12.73 15.473a4.956 4.956 0 0 1-4.957 4.957 4.956 4.956 0 0 1-4.957-4.957 4.956 4.956 0 0 1 4.957-4.957 4.956 4.956 0 0 1 4.957 4.957m0 0" id="n"/><path d="M21.45 24.535a3.233 3.233 0 1 1-6.465.004 3.233 3.233 0 0 1 6.464-.004m0 0" id="r"/><radialGradient cx="13428.81" cy="3518.86" fx="13428.81" fy="3518.86" gradientTransform="translate(-3642.097 -942.547)scale(.27242)" gradientUnits="userSpaceOnUse" id="i" r="56.67"><stop offset=".18" style="stop-color:rgb(36.862746%,62.7451%,93.725491%);stop-opacity:1"/><stop offset="1" style="stop-color:rgb(0%,47.058824%,83.137256%);stop-opacity:1"/></radialGradient><filter filterUnits="objectBoundingBox" height="100%" id="b" width="100%" x="0%" y="0%"><feColorMatrix in="SourceGraphic" values="0 0 0 0 1 0 0 0 0 1 0 0 0 0 1 0 0 0 1 0"/></filter></defs><path d="M25.625 28.258c-6.738 5.226-16.441 4-21.664-2.742-5.227-6.739-4-16.442 2.742-21.664l.16-.11C13.641-1.316 23.223.016 28.36 6.73c5.137 6.715 3.918 16.313-2.734 21.528" style="stroke:none;fill-rule:nonzero;fill:url(#i)"/><use xlink:href="#j" mask="url(#k)"/><use xlink:href="#l" mask="url(#m)"/><use xlink:href="#n" style="stroke:none;fill-rule:nonzero;fill:url(#o)"/><use xlink:href="#p" mask="url(#q)"/><use xlink:href="#r" style="stroke:none;fill-rule:nonzero;fill:url(#s)"/><use xlink:href="#t" mask="url(#u)"/><path d="M29.004 16.543a3.433 3.433 0 1 1-6.867 0 3.432 3.432 0 0 1 3.433-3.43 3.433 3.433 0 0 1 3.434 3.43m0 0" style="stroke:none;fill-rule:nonzero;fill:url(#v)"/><use xlink:href="#w" mask="url(#x)"/><use xlink:href="#n" style="stroke:none;fill-rule:nonzero;fill:url(#y)"/><use xlink:href="#r" style="stroke:none;fill-rule:nonzero;fill:url(#z)"/></svg>
